material/.icons/material/pause-octagon.svg

<svg xmlns="http://www.w3.org/2000/svg" viewBox="0 0 24 24"><path d="M15.73 3L21 8.27v7.46L15.73 21H8.27L3 15.73V8.27L8.27 3h7.46M15 16V8h-2v8h2m-4 0V8H9v8h2z"/></svg>

<?xml version="1.0" encoding="UTF-8"?><!DOCTYPE svg PUBLIC "-//W3C//DTD SVG 1.1//EN" "http://www.w3.org/Graphics/SVG/1.1/DTD/svg11.dtd"><svg xmlns="http://www.w3.org/2000/svg" xmlns:xlink="http://www.w3.org/1999/xlink" version="1.1" id="mdi-pause-octagon" width="24" height="24" viewBox="0 0 24 24"><path d="M15.73,3L21,8.27V15.73L15.73,21H8.27L3,15.73V8.27L8.27,3H15.73M15,16V8H13V16H15M11,16V8H9V16H11Z" /></svg>
